public/svg/button-call/car.svg

<svg width="52" height="42" viewBox="0 0 52 42" fill="none" xmlns="http://www.w3.org/2000/svg">
<path fill-rule="evenodd" clip-rule="evenodd" d="M0.5 4.5H40.0684L51.5 24.4108V36.5H0.5V4.5ZM3.5 7.5V33.5H48.5V25.2108L38.3316 7.5H3.5Z" fill="#E9EFE8"/>
<path fill-rule="evenodd" clip-rule="evenodd" d="M22.5 21V11H25.5V21H22.5Z" fill="#E9EFE8"/>
<path fill-rule="evenodd" clip-rule="evenodd" d="M29 17.5L19 17.5L19 14.5L29 14.5L29 17.5Z" fill="#E9EFE8"/>
<path fill-rule="evenodd" clip-rule="evenodd" d="M0.5 24.5H51.5V36.5H0.5V24.5ZM3.5 27.5V33.5H48.5V27.5H3.5Z" fill="#E9EFE8"/>
<path d="M15 35.5C15 37.9853 12.9853 40 10.5 40C8.01472 40 6 37.9853 6 35.5C6 33.0147 8.01472 31 10.5 31C12.9853 31 15 33.0147 15 35.5Z" fill="#DA3E0D"/>
<path fill-rule="evenodd" clip-rule="evenodd" d="M10.5 32.5C8.84315 32.5 7.5 33.8431 7.5 35.5C7.5 37.1569 8.84315 38.5 10.5 38.5C12.1569 38.5 13.5 37.1569 13.5 35.5C13.5 33.8431 12.1569 32.5 10.5 32.5ZM4.5 35.5C4.5 32.1863 7.18629 29.5 10.5 29.5C13.8137 29.5 16.5 32.1863 16.5 35.5C16.5 38.8137 13.8137 41.5 10.5 41.5C7.18629 41.5 4.5 38.8137 4.5 35.5Z" fill="#E9EFE8"/>
<path d="M45 35.5C45 37.9853 42.9853 40 40.5 40C38.0147 40 36 37.9853 36 35.5C36 33.0147 38.0147 31 40.5 31C42.9853 31 45 33.0147 45 35.5Z" fill="#DA3E0D"/>
<path fill-rule="evenodd" clip-rule="evenodd" d="M40.5 32.5C38.8431 32.5 37.5 33.8431 37.5 35.5C37.5 37.1569 38.8431 38.5 40.5 38.5C42.1569 38.5 43.5 37.1569 43.5 35.5C43.5 33.8431 42.1569 32.5 40.5 32.5ZM34.5 35.5C34.5 32.1863 37.1863 29.5 40.5 29.5C43.8137 29.5 46.5 32.1863 46.5 35.5C46.5 38.8137 43.8137 41.5 40.5 41.5C37.1863 41.5 34.5 38.8137 34.5 35.5Z" fill="#E9EFE8"/>
<path d="M35 5.5C35 4.57174 34.6839 3.6815 34.1213 3.02513C33.5587 2.36875 32.7956 2 32 2C31.2044 2 30.4413 2.36875 29.8787 3.02513C29.3161 3.6815 29 4.57174 29 5.5L32 5.5H35Z" fill="#E9EFE8"/>
<path fill-rule="evenodd" clip-rule="evenodd" d="M28.7398 2.04894C29.5595 1.09263 30.7254 0.5 32 0.5C33.2747 0.5 34.4405 1.09263 35.2602 2.04894C36.0738 2.9981 36.5 4.24223 36.5 5.5V7L27.5 7L27.5 5.5C27.5 4.24223 27.9262 2.9981 28.7398 2.04894ZM31.0187 4H32.9813C32.676 3.64451 32.3163 3.5 32 3.5C31.6837 3.5 31.324 3.64451 31.0187 4Z" fill="#E9EFE8"/>
</svg>

<svg width="52" height="42" fill="none" xmlns="http://www.w3.org/2000/svg"><path fill-rule="evenodd" clip-rule="evenodd" d="M.5 4.5h39.568L51.5 24.41V36.5H.5v-32zm3 3v26h45v-8.29L38.332 7.5H3.5z" fill="#E9EFE8"/><path fill-rule="evenodd" clip-rule="evenodd" d="M22.5 21V11h3v10h-3z" fill="#E9EFE8"/><path fill-rule="evenodd" clip-rule="evenodd" d="M29 17.5H19v-3h10v3zm-28.5 7h51v12H.5v-12zm3 3v6h45v-6h-45z" fill="#E9EFE8"/><path d="M15 35.5a4.5 4.5 0 11-9 0 4.5 4.5 0 019 0z" fill="#DA3E0D"/><path fill-rule="evenodd" clip-rule="evenodd" d="M10.5 32.5a3 3 0 100 6 3 3 0 000-6zm-6 3a6 6 0 1112 0 6 6 0 01-12 0z" fill="#E9EFE8"/><path d="M45 35.5a4.5 4.5 0 11-9 0 4.5 4.5 0 019 0z" fill="#DA3E0D"/><path fill-rule="evenodd" clip-rule="evenodd" d="M40.5 32.5a3 3 0 100 6 3 3 0 000-6zm-6 3a6 6 0 1112 0 6 6 0 01-12 0z" fill="#E9EFE8"/><path d="M35 5.5c0-.928-.316-1.818-.879-2.475C33.56 2.37 32.796 2 32 2s-1.559.369-2.121 1.025C29.316 3.682 29 4.572 29 5.5h6z" fill="#E9EFE8"/><path fill-rule="evenodd" clip-rule="evenodd" d="M28.74 2.049C29.56 1.093 30.725.5 32 .5c1.275 0 2.44.593 3.26 1.549.814.95 1.24 2.193 1.24 3.451V7h-9V5.5c0-1.258.426-2.502 1.24-3.451zM31.019 4h1.962c-.305-.355-.665-.5-.981-.5-.316 0-.676.145-.981.5z" fill="#E9EFE8"/></svg>
